X:40
T:Col. Macbean's Reel
C:R. Petrie
S:Petrie's Second Collection of Strathspey Reels and Country Dances &c.
Z:Steve Wyrick , 6/11/04
N:Petrie's Second Collection, page 14
L:1/8
M:C|
R:Reel
K:Gm
c|(B/c/d) (Gd) BGdG      |(A/B/c) (Fc) AFcF|(B/c/d) (Gd) BGdG |^F/G/A DF G2 G, :|
A|B3f          B/B/B (fd)|cdcB         ABcA|G(gga)       bag^f|gba^f     g2 (ga)|
  (g/a/b) (fd) Bdfd      |cdcB         ABcA|Bdg^f        gdce |dBcA      G2G   |]
